symbols/web/vpn_lock/materialsymbolsoutlined/vpn_lock_wght500grad200_24px.svg

<svg xmlns="http://www.w3.org/2000/svg" height="24" width="24"><path d="M12 23.225q-2.325 0-4.375-.875t-3.575-2.4q-1.525-1.525-2.4-3.575Q.775 14.325.775 12t.875-4.363q.875-2.037 2.4-3.575Q5.575 2.525 7.625 1.65 9.675.775 12 .775q.8 0 1.625.112.825.113 1.525.313v3.425q0 .85-.625 1.475-.625.625-1.5.625h-2.05v2.1q0 .425-.312.725-.313.3-.738.3h-2.15v2.125h6.35q.4 0 .713.312.312.313.312.713v3.2h1.075q.7 0 1.237.4.538.4.738 1.05 1.075-1.175 1.638-2.612Q20.4 13.6 20.4 12q0-.275-.012-.525-.013-.25-.063-.525h2.85q.05.275.05.525V12q0 2.325-.875 4.375t-2.4 3.575q-1.525 1.525-3.562 2.4-2.038.875-4.388.875Zm-1.025-2.875v-2.075q-.875 0-1.5-.612-.625-.613-.625-1.488v-1.05l-5.05-5.05q-.075.475-.137.962-.063.488-.063.963 0 3.2 2.1 5.575t5.275 2.775Zm7.475-11.3q-.575 0-.988-.4-.412-.4-.412-1V5.025q0-.55.275-.925t.775-.45V2.6q0-.925.663-1.575.662-.65 1.587-.65.925 0 1.588.65.662.65.662 1.575v1.05q.5.075.75.45t.25.925V7.65q0 .6-.4 1t-1 .4Zm.925-5.4h1.95v-1.1q0-.425-.275-.7-.275-.275-.7-.275-.425 0-.7.275-.275.275-.275.7Z"/></svg>

<svg xmlns="http://www.w3.org/2000/svg" height="24" width="24"><path d="M12 23.225Q9.675 23.225 7.625 22.35Q5.575 21.475 4.05 19.95Q2.525 18.425 1.65 16.375Q0.775 14.325 0.775 12Q0.775 9.675 1.65 7.637Q2.525 5.6 4.05 4.062Q5.575 2.525 7.625 1.65Q9.675 0.775 12 0.775Q12.8 0.775 13.625 0.887Q14.45 1 15.15 1.2V4.625Q15.15 5.475 14.525 6.1Q13.9 6.725 13.025 6.725H10.975V8.825Q10.975 9.25 10.663 9.55Q10.35 9.85 9.925 9.85H7.775V11.975H14.125Q14.525 11.975 14.838 12.287Q15.15 12.6 15.15 13V16.2H16.225Q16.925 16.2 17.462 16.6Q18 17 18.2 17.65Q19.275 16.475 19.838 15.038Q20.4 13.6 20.4 12Q20.4 11.725 20.388 11.475Q20.375 11.225 20.325 10.95H23.175Q23.225 11.225 23.225 11.475Q23.225 11.725 23.225 12Q23.225 14.325 22.35 16.375Q21.475 18.425 19.95 19.95Q18.425 21.475 16.388 22.35Q14.35 23.225 12 23.225ZM10.975 20.35V18.275Q10.1 18.275 9.475 17.663Q8.85 17.05 8.85 16.175V15.125L3.8 10.075Q3.725 10.55 3.663 11.037Q3.6 11.525 3.6 12Q3.6 15.2 5.7 17.575Q7.8 19.95 10.975 20.35ZM18.45 9.05Q17.875 9.05 17.462 8.65Q17.05 8.25 17.05 7.65V5.025Q17.05 4.475 17.325 4.1Q17.6 3.725 18.1 3.65V2.6Q18.1 1.675 18.763 1.025Q19.425 0.375 20.35 0.375Q21.275 0.375 21.938 1.025Q22.6 1.675 22.6 2.6V3.65Q23.1 3.725 23.35 4.1Q23.6 4.475 23.6 5.025V7.65Q23.6 8.25 23.2 8.65Q22.8 9.05 22.2 9.05ZM19.375 3.65H21.325V2.55Q21.325 2.125 21.05 1.85Q20.775 1.575 20.35 1.575Q19.925 1.575 19.65 1.85Q19.375 2.125 19.375 2.55Z"/></svg>
